!!!OTL: Die Koenigstochter Om alla berg och dalar de voro utaf gull,
!!!ARE: Nordeuropa, Sverige
!!!YOR: 2, S. 66
!!    1814 aufgezeichnet (vor)
!!!SCT: Q2040A
!!!YEM: Copyright 1995, estate of Helmut Schaffrath.
**kern
*ICvox
*Ivox
*M4/4
*k[]
*a:
{8e
=1
8a
8a
8a
8b
4ccn
8ccn
8ccn
=2
8b
8a
8a
8g#
4e
8r}
{8f#
=3
8gn
8gn
8gn
8gn
8gn
8fn
8a
8fn
=4
4e
2r
8r
{8e
=5
4b
8b
8dd
8dd
8ccn
8ccn
8b
=6
8a
8g#
8a
8ccn
4b
8r}
{8d#
=7
8e
8e
8a
8b
8ccn
8b
8a
8g#
=8
4a
2r
8r
==
!!!AGN: Ballade, Betrug, Ehe, Tod
!! Schwedische Fassung der Ballade.
!!!ONB: ESAC (Essen Associative Code) Database: BALLADE
!!!AMT: simple quadruple
!!!AIN: vox
!!!EED: Helmut Schaffrath
!!!EEV: 1.0
*-
